X: 31912
T: Peacock's Feathers, The
R: hornpipe
M: 4/4
K: Dmajor
G|AFDF A3A|defd B2ef|g2fg egdB|AGFG E3G|
AFDF A3A|defd B2ef|g2fg egdB|Adfe d3:|
|:g|af(3gfe (3fedec|defd B2ef|g2fg egdB|AGFG E3G|
AFDF A3A|defd B2ef|g2fg egdB|Adfe d3:|

